brand-assets/vitest/vitest-logo-mono-dark.svg

<svg width="382" height="47" viewBox="0 0 382 47" fill="none" xmlns="http://www.w3.org/2000/svg">
<path d="M217.056 0C234.827 0 242.001 4.58835 242.001 15.1865V15.3164H226.556V15.1865C226.556 11.4387 224.617 10.0166 216.798 10.0166C208.978 10.0166 206.587 11.4387 206.587 13.959C206.587 16.1562 208.332 16.9962 212.403 17.3193L225.457 18.2891C237.736 19.1938 242.777 23.1358 242.777 31.6016C242.777 41.3599 235.28 46.789 216.798 46.7891C198.315 46.7891 190.495 42.0061 190.495 30.8906V30.8262H206.199V30.8906C206.199 34.6389 208.461 36.6426 216.798 36.6426C225.134 36.6425 227.073 35.0913 227.073 32.7002C227.073 30.5677 225.651 29.5983 222.549 29.3398L209.366 28.3057C195.407 27.207 191.142 22.9416 191.142 14.7988C191.142 4.97617 199.284 8.17979e-05 217.056 0ZM28.5 33.3467L40.2617 0.775391H56.3535L38.5166 46.0127H17.8369L0 0.775391H16.5439L28.5 33.3467ZM77.2275 46.0127H61.7178V0.775391H77.2275V46.0127ZM133.561 11.8906H116.174V46.0127H100.664V11.8906H83.2803V0.775391H133.561V11.8906ZM184.27 11.7617H155.124V17.8369H183.817V28.5H155.124V35.0264H185.109V46.0127H139.611V0.775391H184.27V11.7617ZM296.804 0.775391V11.8906H279.42V46.0127H263.909V11.8906H246.525V0.775391H296.804Z" fill="#08060E"/>
<path d="M342.076 42.9766C341.744 43.5669 340.973 43.7349 340.423 43.3364L321.275 29.4097C320.982 29.1964 320.81 28.856 320.81 28.4941V11.7089C320.81 10.7847 321.859 10.2505 322.606 10.7934L334.318 19.3109C335.413 20.108 336.957 19.7698 337.621 18.5914L347.321 1.34734C347.521 0.991899 347.898 0.77002 348.308 0.77002H363.882C364.748 0.77002 365.293 1.70277 364.869 2.45673L342.076 42.9745V42.9766Z" fill="#08060E"/>
<mask id="mask0_4031_15480" style="mask-type:alpha" maskUnits="userSpaceOnUse" x="320" y="0" width="46" height="44">
<path d="M342.076 42.9765C341.744 43.5667 340.973 43.7348 340.423 43.3362L321.275 29.4095C320.982 29.1963 320.81 28.8559 320.81 28.494V11.7088C320.81 10.7846 321.859 10.2504 322.606 10.7932L334.318 19.3108C335.413 20.1079 336.957 19.7697 337.621 18.5913L347.321 1.34721C347.521 0.991777 347.898 0.769897 348.308 0.769897H363.882C364.748 0.769897 365.293 1.70265 364.869 2.45661L342.076 42.9743V42.9765Z" fill="black"/>
</mask>
<g mask="url(#mask0_4031_15480)">
<g filter="url(#filter0_f_4031_15480)">
<ellipse cx="14.0313" cy="3.39062" rx="14.0313" ry="3.39062" transform="matrix(-0.650066 0.759878 0.759879 0.650065 353.318 -2.84888)" fill="#08060E"/>
</g>
<g filter="url(#filter1_f_4031_15480)">
<ellipse cx="14.0313" cy="6.0868" rx="14.0313" ry="6.0868" transform="matrix(-0.588245 -0.808682 -0.808682 0.588246 336.918 38.2769)" fill="#08060E"/>
</g>
<g filter="url(#filter2_f_4031_15480)">
<ellipse cx="327.252" cy="12.9652" rx="6.37416" ry="5.55082" transform="rotate(23.1293 327.252 12.9652)" fill="#08060E"/>
</g>
<g filter="url(#filter3_f_4031_15480)">
<ellipse cx="361.584" cy="16.7207" rx="5.61461" ry="24.5343" transform="rotate(23.1293 361.584 16.7207)" fill="#08060E"/>
</g>
<g filter="url(#filter4_f_4031_15480)">
<ellipse cx="4.98534" cy="10.0691" rx="4.98534" ry="10.0691" transform="matrix(0.707107 -0.707107 -0.707107 -0.707107 360.258 11.7113)" fill="#08060E"/>
</g>
</g>
<path d="M312.23 0.00317383C303.032 13.1694 302.978 33.578 312.23 46.7917H318.445C309.195 33.578 309.249 13.1694 318.445 0.00317383H312.23Z" fill="#08060E"/>
<path d="M374.651 0.00317383H368.436C377.634 13.1694 377.688 33.578 368.436 46.7917H374.651C383.901 33.578 383.847 13.1694 374.651 0.00317383Z" fill="#08060E"/>
<defs>
<filter id="filter0_f_4031_15480" x="328.102" y="-10.0634" width="37.3432" height="40.1615" filterUnits="userSpaceOnUse" color-interpolation-filters="sRGB">
<feFlood flood-opacity="0" result="BackgroundImageFix"/>
<feBlend mode="normal" in="SourceGraphic" in2="BackgroundImageFix" result="shape"/>
<feGaussianBlur stdDeviation="4.59556" result="effect1_foregroundBlur_4031_15480"/>
</filter>
<filter id="filter1_f_4031_15480" x="304.94" y="9.4179" width="37.6054" height="42.1853" filterUnits="userSpaceOnUse" color-interpolation-filters="sRGB">
<feFlood flood-opacity="0" result="BackgroundImageFix"/>
<feBlend mode="normal" in="SourceGraphic" in2="BackgroundImageFix" result="shape"/>
<feGaussianBlur stdDeviation="4.59556" result="effect1_foregroundBlur_4031_15480"/>
</filter>
<filter id="filter2_f_4031_15480" x="311.805" y="-1.91292" width="30.8944" height="29.7561" filterUnits="userSpaceOnUse" color-interpolation-filters="sRGB">
<feFlood flood-opacity="0" result="BackgroundImageFix"/>
<feBlend mode="normal" in="SourceGraphic" in2="BackgroundImageFix" result="shape"/>
<feGaussianBlur stdDeviation="4.59556" result="effect1_foregroundBlur_4031_15480"/>
</filter>
<filter id="filter3_f_4031_15480" x="341.458" y="-15.1418" width="40.2528" height="63.7251" filterUnits="userSpaceOnUse" color-interpolation-filters="sRGB">
<feFlood flood-opacity="0" result="BackgroundImageFix"/>
<feBlend mode="normal" in="SourceGraphic" in2="BackgroundImageFix" result="shape"/>
<feGaussianBlur stdDeviation="4.59556" result="effect1_foregroundBlur_4031_15480"/>
</filter>
<filter id="filter4_f_4031_15480" x="339.525" y="-16.0715" width="34.2758" height="34.2754" filterUnits="userSpaceOnUse" color-interpolation-filters="sRGB">
<feFlood flood-opacity="0" result="BackgroundImageFix"/>
<feBlend mode="normal" in="SourceGraphic" in2="BackgroundImageFix" result="shape"/>
<feGaussianBlur stdDeviation="4.59556" result="effect1_foregroundBlur_4031_15480"/>
</filter>
</defs>
</svg>

<svg xmlns="http://www.w3.org/2000/svg" width="382" height="47" fill="none" viewBox="0 0 382 47"><path fill="#08060e" d="M217.056 0c17.771 0 24.945 4.588 24.945 15.187v.13h-15.445v-.13c0-3.748-1.939-5.17-9.758-5.17-7.82 0-10.211 1.422-10.211 3.942 0 2.197 1.745 3.037 5.816 3.36l13.054.97c12.279.905 17.32 4.847 17.32 13.313 0 9.758-7.497 15.187-25.979 15.187-18.483 0-26.303-4.783-26.303-15.898v-.065h15.704v.065c0 3.748 2.262 5.752 10.599 5.752s10.275-1.552 10.275-3.943c0-2.132-1.422-3.102-4.524-3.36l-13.183-1.034c-13.959-1.099-18.224-5.364-18.224-13.507C191.142 4.976 199.284 0 217.056 0M28.5 33.347 40.262.775h16.091L38.518 46.013h-20.68L0 .775h16.544zm48.728 12.666h-15.51V.775h15.51zM133.56 11.89h-17.387v34.122h-15.51V11.89H83.28V.775h50.281zm50.709-.13h-29.146v6.076h28.693V28.5h-28.693v6.526h29.985v10.987H139.61V.775h44.659zM296.804.776v11.116H279.42v34.122h-15.511V11.89h-17.384V.775zm45.272 42.201a1.132 1.132 0 0 1-1.653.36L321.275 29.41a1.13 1.13 0 0 1-.465-.916V11.71a1.131 1.131 0 0 1 1.796-.916l11.712 8.518a2.263 2.263 0 0 0 3.303-.72l9.7-17.244c.2-.355.577-.577.987-.577h15.574c.866 0 1.411.933.987 1.687z"/><mask id="a" width="46" height="44" x="320" y="0" maskUnits="userSpaceOnUse" style="mask-type:alpha"><path fill="#000" d="M342.076 42.977a1.132 1.132 0 0 1-1.653.36l-19.148-13.928a1.13 1.13 0 0 1-.465-.915V11.709a1.132 1.132 0 0 1 1.796-.916l11.712 8.518a2.263 2.263 0 0 0 3.303-.72l9.7-17.244c.2-.355.577-.577.987-.577h15.574c.866 0 1.411.933.987 1.687l-22.793 40.517z"/></mask><g mask="url(#a)"><g filter="url(#b)"><ellipse cx="14.031" cy="3.391" fill="#08060e" rx="14.031" ry="3.391" transform="rotate(130.547 177.315 79.93)scale(1 -1)"/></g><g filter="url(#c)"><ellipse cx="14.031" cy="6.087" fill="#08060e" rx="14.031" ry="6.087" transform="rotate(53.967 130.871 349.99)scale(-1 1)"/></g><g filter="url(#d)"><ellipse cx="327.252" cy="12.965" fill="#08060e" rx="6.374" ry="5.551" transform="rotate(23.13 327.252 12.965)"/></g><g filter="url(#e)"><ellipse cx="361.584" cy="16.721" fill="#08060e" rx="5.615" ry="24.534" transform="rotate(23.13 361.584 16.72)"/></g><g filter="url(#f)"><ellipse cx="4.985" cy="10.069" fill="#08060e" rx="4.985" ry="10.069" transform="rotate(135 177.704 80.468)scale(-1 1)"/></g></g><path fill="#08060e" d="M312.23.003c-9.198 13.166-9.252 33.575 0 46.789h6.215c-9.25-13.214-9.196-33.623 0-46.789zm62.421 0h-6.215c9.198 13.166 9.252 33.575 0 46.789h6.215c9.25-13.214 9.196-33.623 0-46.789"/><defs><filter id="b" width="37.343" height="40.161" x="328.102" y="-10.063" color-interpolation-filters="sRGB" filterUnits="userSpaceOnUse"><feFlood flood-opacity="0" result="BackgroundImageFix"/><feBlend in="SourceGraphic" in2="BackgroundImageFix" result="shape"/><feGaussianBlur result="effect1_foregroundBlur_4031_15480" stdDeviation="4.596"/></filter><filter id="c" width="37.605" height="42.185" x="304.94" y="9.418" color-interpolation-filters="sRGB" filterUnits="userSpaceOnUse"><feFlood flood-opacity="0" result="BackgroundImageFix"/><feBlend in="SourceGraphic" in2="BackgroundImageFix" result="shape"/><feGaussianBlur result="effect1_foregroundBlur_4031_15480" stdDeviation="4.596"/></filter><filter id="d" width="30.894" height="29.756" x="311.805" y="-1.913" color-interpolation-filters="sRGB" filterUnits="userSpaceOnUse"><feFlood flood-opacity="0" result="BackgroundImageFix"/><feBlend in="SourceGraphic" in2="BackgroundImageFix" result="shape"/><feGaussianBlur result="effect1_foregroundBlur_4031_15480" stdDeviation="4.596"/></filter><filter id="e" width="40.253" height="63.725" x="341.458" y="-15.142" color-interpolation-filters="sRGB" filterUnits="userSpaceOnUse"><feFlood flood-opacity="0" result="BackgroundImageFix"/><feBlend in="SourceGraphic" in2="BackgroundImageFix" result="shape"/><feGaussianBlur result="effect1_foregroundBlur_4031_15480" stdDeviation="4.596"/></filter><filter id="f" width="34.276" height="34.275" x="339.525" y="-16.072" color-interpolation-filters="sRGB" filterUnits="userSpaceOnUse"><feFlood flood-opacity="0" result="BackgroundImageFix"/><feBlend in="SourceGraphic" in2="BackgroundImageFix" result="shape"/><feGaussianBlur result="effect1_foregroundBlur_4031_15480" stdDeviation="4.596"/></filter></defs></svg>
